X: 1
T: Ale is Dear
T: Maighstir Ord
N: Fiddlers Five CD 7, as trad, follows Spootiskerry, Scots Guards #341, Logan's p.33
Z: 1999 John Chambers <jc:trillian.mit.edu>
M: C|
L: 1/8
K: BDor
|: "Bm"{e}f2ef B2ce | "A"faea cAce \
|  "Bm"f2ef B2ce | "A"faec "Bm"B4 :|
|: "Bm"{A}B2Bc d2cB | "A"cAAB ABcA |\
[1 "G"{A}B2Bc d2cB | "F#"f2ec "Bm"B4 :|\
[2 "D"d2fd "A"c2ec | "F#"f2ec "Bm"B4 |]
